X:143
T:
S:Efter Simon Florström, Jacksarve i Rone.
M:2/4
L:1/8
K:Em
E B B B|(B/A/) G F z|G A B G|
w:Bis-sen, dus-sen läi-ten kinn! Däu ha maŋ-gä
(F>G) E z|G E ^D E|(F/G/) (A/G/) F2|G E ^D E|
w:fa--rar: ein äi Skån’ u ein_ äi_ Lund, fäir u čug äi
(F/G/) (A/G/) HF> D|E E (E/F/) G/ A/|A2 B> c|
w:Stra--lä--sund för-äu-ten präs--tar u djäk-nar, sum
B A G F/ ^D/|F2 E2|]
w:iŋ-gä mäns-kå kann räkk-nä.
